public/images/icon-movie.svg

<svg xmlns="http://www.w3.org/2000/svg" width="216" height="216" fill="none"><path fill="#718096" d="M162 99c0-8.631-6.12-15.849-14.229-17.586C151.011 76.005 153 69.75 153 63c0-19.854-16.146-36-36-36-13.653 0-25.389 7.713-31.5 18.936C79.389 34.713 67.653 27 54 27c-19.854 0-36 16.146-36 36 0 8.118 2.808 15.543 7.353 21.564A17.9456 17.9456 0 0 0 18 99v72c0 9.927 8.073 18 18 18h108c9.927 0 18-8.073 18-18v-23.742l36 18v-63l-36 18V99Zm-45-54c9.927 0 18 8.073 18 18s-8.073 18-18 18-18-8.073-18-18 8.073-18 18-18Zm-63 0c9.927 0 18 8.073 18 18s-8.073 18-18 18-18-8.073-18-18 8.073-18 18-18ZM36 171V99h108l.018 72H36Z"/></svg>

<svg width="216" height="216" viewBox="0 0 216 216" fill="none" xmlns="http://www.w3.org/2000/svg">
<path d="M162 99C162 90.369 155.88 83.151 147.771 81.414C151.011 76.005 153 69.75 153 63C153 43.146 136.854 27 117 27C103.347 27 91.611 34.713 85.5 45.936C79.389 34.713 67.653 27 54 27C34.146 27 18 43.146 18 63C18 71.118 20.808 78.543 25.353 84.564C23.0813 86.2252 21.2321 88.3973 19.9548 90.9051C18.6775 93.4128 18.0079 96.1857 18 99V171C18 180.927 26.073 189 36 189H144C153.927 189 162 180.927 162 171V147.258L198 165.258V102.258L162 120.258V99ZM117 45C126.927 45 135 53.073 135 63C135 72.927 126.927 81 117 81C107.073 81 99 72.927 99 63C99 53.073 107.073 45 117 45ZM54 45C63.927 45 72 53.073 72 63C72 72.927 63.927 81 54 81C44.073 81 36 72.927 36 63C36 53.073 44.073 45 54 45ZM36 171V99H144L144.018 171H36Z" fill="#718096"/>
</svg>
